X:1
T:Title
%%score { ( 1 3 ) | ( 2 4 ) }
L:1/8
Q:1/4=106
M:4/4
K:Bb
V:1 treble nm="Grand Piano"
V:3 treble 
V:2 bass 
V:4 bass 
V:1
 .[DF]2 [DF]>[_D=E] [=DF]2 [Fd]2 | [DB]4 [B,DF]4 | .[CA]2 z2 [Ec]4 | [DB]6 z2 | %4
w: W.~H.~Doane * * * *||||
 [DF]2 [DF]>[_D=E] [=DF]2 [Fd]2 | [GB]4 [EG]4 | [=EG]4 [FA]2 [EG]2 | F6 z2 | c4 z4 | %9
w: |||||
 [B,DF]4 [DB]4 | [EB]4 z4 | [DF]6 z2 | c2 cc d2 c2 | B2 G2 [DF]4 | [DF] .[DB]3 [EG] .[EB]3 | %15
w: ||||||
[M:9/8] F d2- dc[DB]- [DB]3 |] %16
w: |
V:2
 [B,,B,]2 [B,,B,]>[B,,B,] [B,,B,]2 [B,,B,]2 | [B,,F,]4 B,,4 | F,4 F,4 | [B,,F,]6 z2 | %4
 [B,,B,]2 [B,,B,]>[B,,B,] [B,,B,]2 [B,,B,]2 | [E,B,]4 [E,B,]4 | [C,C]4 [C,C]2 [C,B,]2 | %7
 [F,A,]6 z2 | F4 .F2 .E2 | B,,4 [B,,F,]4 | [E,G,]2 z2 z E .[E,B,E]2 | [B,,B,]2 B,,2 B,,2 D,2 | %12
 [F,A,F]2 [F,A,F][F,A,F] [F,B,F]2 [^F,A,E]2 | [G,B,D]2 [E,B,E]2 [B,,B,]4 | %14
 [B,,B,] .[B,,B,]3 [E,B,] .[D,G,]3 |[M:9/8] [F,B,D] [F,B,F]2- [F,B,F][F,A,E][B,,B,]- [B,,B,]3 |] %16
V:3
 x8 | x8 | x8 | x8 | x8 | x8 | x8 | x8 | z2 A,2 dcAF | x8 | z2 [E,G,]2 [Ec]BGE | %11
 z2 B,2 B,2 [B,FB]2 | x8 | x8 | x8 |[M:9/8] x9 |] %16
V:4
 x8 | x8 | x8 | x8 | x8 | x8 | x8 | x8 | [F,A,]2 F,2 [F,A,]-[F,A,E][F,C]-[F,CE] | x8 | %10
 z4 [D,G,]2 z2 | x8 | x8 | x8 | x8 |[M:9/8] x9 |] %16

